assets/images/landing-page/vector-logo.svg

<svg width="14" height="26" viewBox="0 0 14 26" fill="none" xmlns="http://www.w3.org/2000/svg">
<path d="M12.6492 9.96493C12.7292 9.7937 12.798 9.66738 12.8443 9.58738C13.3198 8.67783 13.5674 7.66639 13.5657 6.64002C13.5788 5.78772 13.4169 4.9418 13.09 4.15456C12.7632 3.36733 12.2783 2.65553 11.6653 2.06317C11.0678 1.46144 10.3572 0.983874 9.57436 0.65798C8.79151 0.332086 7.95191 0.164307 7.10393 0.164307C6.25595 0.164307 5.41635 0.332086 4.6335 0.65798C3.85065 0.983874 3.14001 1.46144 2.54253 2.06317C1.93419 2.65666 1.45299 3.36775 1.12822 4.15313C0.803446 4.93852 0.641897 5.78178 0.653406 6.63159C0.632462 8.2692 1.25776 9.84908 2.39376 11.0288C3.49043 12.2371 5.01383 12.9719 6.64218 13.0779L3.45902 18.6302L6.04709 18.6232L1.59656 25.9649L12.6843 15.8597H9.26954L12.4555 10.3298C12.5277 10.2124 12.5924 10.0905 12.6492 9.96493ZM9.05481 8.57966C8.66739 8.96598 8.17407 9.22867 7.63729 9.33449C7.10051 9.4403 6.54441 9.38449 6.03936 9.17412C5.53431 8.96375 5.10303 8.60827 4.80011 8.15268C4.49718 7.69708 4.33622 7.16186 4.33762 6.61475C4.33166 6.2501 4.3996 5.88802 4.53733 5.55032C4.67506 5.21263 4.87974 4.90631 5.13902 4.64984C5.39404 4.38902 5.6986 4.18178 6.03482 4.04029C6.37104 3.8988 6.73214 3.82592 7.09691 3.82592C7.46169 3.82592 7.82279 3.8988 8.15901 4.04029C8.49523 4.18178 8.79979 4.38902 9.05481 4.64984C9.3156 4.90576 9.522 5.21172 9.66164 5.54937C9.80128 5.88701 9.87128 6.24939 9.86744 6.61475C9.8738 6.98026 9.80495 7.34317 9.66516 7.68095C9.52536 8.01873 9.31761 8.32415 9.05481 8.57826V8.57966Z" fill="#F9BE00"/>
</svg>

<svg width="14" height="26" fill="none" xmlns="http://www.w3.org/2000/svg"><path d="M12.65 9.965c.08-.171.148-.298.194-.378a6.34 6.34 0 00.722-2.947 6.231 6.231 0 00-1.9-4.577 6.428 6.428 0 00-9.123 0 6.264 6.264 0 00-1.89 4.569 6.225 6.225 0 001.74 4.397 6.29 6.29 0 004.25 2.049L3.458 18.63l2.588-.007-4.45 7.342L12.684 15.86H9.27l3.186-5.53a3.44 3.44 0 00.193-.365zM9.054 8.58a2.765 2.765 0 01-4.717-1.965 2.702 2.702 0 01.801-1.965 2.738 2.738 0 013.916 0 2.713 2.713 0 01.812 1.965 2.667 2.667 0 01-.812 1.963v.002z" fill="#fff"/></svg>
